veiligh_install_type/158.svg

<?xml version="1.0" encoding="UTF-8" standalone="no"?>
<!-- Generator: Adobe Illustrator 24.1.0, SVG Export Plug-In . SVG Version: 6.00 Build 0)  -->

<svg
   xmlns:dc="http://purl.org/dc/elements/1.1/"
   xmlns:cc="http://creativecommons.org/ns#"
   xmlns:rdf="http://www.w3.org/1999/02/22-rdf-syntax-ns#"
   xmlns:svg="http://www.w3.org/2000/svg"
   xmlns="http://www.w3.org/2000/svg"
   xmlns:sodipodi="http://sodipodi.sourceforge.net/DTD/sodipodi-0.dtd"
   xmlns:inkscape="http://www.inkscape.org/namespaces/inkscape"
   version="1.1"
   id="svg2"
   x="0px"
   y="0px"
   viewBox="0 0 125 125"
   xml:space="preserve"
   sodipodi:docname="158.svg"
   width="125"
   height="125"
   inkscape:version="0.92.5 (2060ec1f9f, 2020-04-08)"><metadata
   id="metadata27056"><rdf:RDF><cc:Work
       rdf:about=""><dc:format>image/svg+xml</dc:format><dc:type
         rdf:resource="http://purl.org/dc/dcmitype/StillImage" /><dc:title></dc:title></cc:Work></rdf:RDF></metadata><defs
   id="defs27054" /><sodipodi:namedview
   pagecolor="#ffffff"
   bordercolor="#666666"
   borderopacity="1"
   objecttolerance="10"
   gridtolerance="10"
   guidetolerance="10"
   inkscape:pageopacity="0"
   inkscape:pageshadow="2"
   inkscape:window-width="1920"
   inkscape:window-height="1017"
   id="namedview27052"
   showgrid="false"
   inkscape:zoom="3.3286318"
   inkscape:cx="35.450001"
   inkscape:cy="35.450001"
   inkscape:window-x="-8"
   inkscape:window-y="-8"
   inkscape:window-maximized="1"
   inkscape:current-layer="svg2" />
<style
   type="text/css"
   id="style27030">
	.st0{fill:#FFFFFF;stroke:#000000;stroke-width:2;}
	.st1{fill-rule:evenodd;clip-rule:evenodd;fill:#231F20;}
	.st2{fill:#231F20;}
	.st3{fill:#FCD205;}
	.st4{font-family:'Arial-BoldMT';}
	.st5{font-size:17.927px;}
	.st6{fill:#176FC1;}
</style>



<g
   id="g27617"
   transform="translate(30.6,23.648686)"><polygon
     style="fill:#ffffff;stroke:#000000;stroke-width:2"
     transform="matrix(0.90272776,0,0,0.9014061,-0.05656256,7.0316788)"
     points="70.4,0.3 70.4,70.3 0.4,70.3 0.4,0.3 "
     class="st0"
     id="rect2995" /><g
     transform="matrix(0.90272776,0,0,0.9014061,-0.05656256,7.0316788)"
     id="g27039">
	<path
   style="clip-rule:evenodd;fill:#231f20;fill-rule:evenodd"
   d="m 49.2,43.7 h 3.1 v 4 h -1 l -0.2,-0.9 c -0.4,0.5 -1,1.1 -2.3,1.1 -1.8,0 -3.4,-1.3 -3.4,-3.9 0,-2 1.1,-3.9 3.6,-3.9 2.3,0 3.2,1.5 3.3,2.5 h -1.6 c 0,-0.3 -0.5,-1.2 -1.6,-1.2 C 48,41.3 47,42.1 47,44 c 0,2 1.1,2.6 2.2,2.6 0.3,0 1.5,-0.1 1.8,-1.6 h -1.7 v -1.3"
   class="st1"
   inkscape:connector-curvature="0"
   id="path22_1_" />
	<path
   style="fill:#231f20"
   d="M 61.8,45.3 50.3,52 38.8,45.4 v 13.8 l 11.5,-6.6 11.5,6.6 V 45.3"
   class="st2"
   inkscape:connector-curvature="0"
   id="path26_1_" />
	<path
   style="fill:#fcd205"
   d="M 49.8,52.2 39.2,58.3 V 46.1 l 10.6,6.1"
   class="st3"
   inkscape:connector-curvature="0"
   id="path28_1_" />
	<path
   style="fill:#fcd205"
   d="m 50.8,52.2 10.6,6.1 V 46.1 l -10.6,6.1"
   class="st3"
   inkscape:connector-curvature="0"
   id="path30_1_" />
	<path
   style="fill:#231f20"
   d="m 35.4,53.1 h 3.4 v -1.5 h -3.4 c 0,0 0,1.5 0,1.5 z"
   class="st2"
   inkscape:connector-curvature="0"
   id="path32_1_" />
	<path
   style="fill:#231f20"
   d="m 61.8,53.1 h 3.4 v -1.5 h -3.4 z"
   class="st2"
   inkscape:connector-curvature="0"
   id="path34_1_" />
</g><text
     style="font-size:16.17135048px;font-family:Arial-BoldMT;stroke-width:0.90206665"
     y="31.177759"
     x="4.7348061"
     id="text27041"
     class="st4 st5"
     transform="scale(1.0007328,0.9992677)">MK</text>
<g
     transform="matrix(0.90272776,0,0,0.9014061,-0.05656256,7.0316788)"
     id="g27049">
	<path
   style="clip-rule:evenodd;fill:#231f20;fill-rule:evenodd"
   d="m 14.1,40.2 h 1.7 c 1,4.1 1,4.6 1.2,5.4 v 0 c 0.1,-0.8 0.2,-1.5 1,-5.4 h 1.6 c 0.9,4.1 0.9,4.5 1.1,5.4 v 0 c 0.1,-0.7 0.2,-1.3 1.2,-5.4 h 1.6 l -2.1,7.4 H 20 C 19.2,44 19.1,43.2 18.8,41.8 v 0 c -0.2,1.4 -0.3,2 -1.2,5.8 h -1.4 l -2.1,-7.4"
   class="st1"
   inkscape:connector-curvature="0"
   id="path22" />
	<path
   style="fill:#231f20"
   d="m 30.4,45.7 c 0,0.8 0,12.2 0,13 -0.7,-0.4 -11.2,-6.5 -11.2,-6.5 0,0 10.5,-6.1 11.2,-6.5 z m -22.5,0 c 0.7,0.4 11.2,6.5 11.2,6.5 0,0 -10.5,6.1 -11.2,6.5 0,-0.8 0,-12.2 0,-13 z m 11.3,5.9 C 19,51.5 7.5,44.8 7.5,44.8 v 14.6 c 0,0 11.5,-6.6 11.7,-6.8 0.2,0.1 11.7,6.8 11.7,6.8 V 44.9 c 0,0 -11.5,6.6 -11.7,6.7"
   class="st2"
   inkscape:connector-curvature="0"
   id="path26" />
	<path
   style="fill:#176fc1"
   d="M 19.2,52.2 7.9,58.7 V 45.6 l 11.3,6.6"
   class="st6"
   inkscape:connector-curvature="0"
   id="path28" />
	<path
   style="fill:#176fc1"
   d="m 19.1,52.2 11.4,6.6 V 45.6 l -11.4,6.6"
   class="st6"
   inkscape:connector-curvature="0"
   id="path30" />
	<path
   style="fill:#231f20"
   d="M 4.3,53.1 H 7.7 V 51.6 H 4.3 Z"
   class="st2"
   inkscape:connector-curvature="0"
   id="path32" />
	<path
   style="fill:#231f20"
   d="M 30.7,53.1 H 34 v -1.5 h -3.4 v 1.5 z"
   class="st2"
   inkscape:connector-curvature="0"
   id="path34" />
</g></g>
</svg>

<?xml version="1.0" encoding="utf-8"?>
<!-- Generator: Adobe Illustrator 24.1.0, SVG Export Plug-In . SVG Version: 6.00 Build 0)  -->
<svg version="1.1"
	 id="svg2" xmlns:cc="http://creativecommons.org/ns#" xmlns:dc="http://purl.org/dc/elements/1.1/" xmlns:inkscape="http://www.inkscape.org/namespaces/inkscape" xmlns:rdf="http://www.w3.org/1999/02/22-rdf-syntax-ns#" xmlns:sodipodi="http://sodipodi.sourceforge.net/DTD/sodipodi-0.dtd" xmlns:svg="http://www.w3.org/2000/svg"
	 xmlns="http://www.w3.org/2000/svg" xmlns:xlink="http://www.w3.org/1999/xlink" x="0px" y="0px" viewBox="0 0 70.9 70.9"
	 style="enable-background:new 0 0 70.9 70.9;" xml:space="preserve">
<style type="text/css">
	.st0{fill:#FFFFFF;stroke:#000000;stroke-width:2;}
	.st1{fill-rule:evenodd;clip-rule:evenodd;fill:#231F20;}
	.st2{fill:#231F20;}
	.st3{fill:#FCD205;}
	.st4{font-family:'Arial-BoldMT';}
	.st5{font-size:17.927px;}
	.st6{fill:#176FC1;}
</style>
<polygon id="rect2995" class="st0" points="0.4,0.3 70.4,0.3 70.4,0.3 70.4,70.3 70.4,70.3 0.4,70.3 0.4,70.3 0.4,0.3 "/>
<g>
	<path id="path22_1_" inkscape:connector-curvature="0" class="st1" d="M49.2,43.7h3.1v4h-1l-0.2-0.9c-0.4,0.5-1,1.1-2.3,1.1
		c-1.8,0-3.4-1.3-3.4-3.9c0-2,1.1-3.9,3.6-3.9c2.3,0,3.2,1.5,3.3,2.5h-1.6c0-0.3-0.5-1.2-1.6-1.2C48,41.3,47,42.1,47,44
		c0,2,1.1,2.6,2.2,2.6c0.3,0,1.5-0.1,1.8-1.6h-1.7V43.7"/>
	<path id="path26_1_" inkscape:connector-curvature="0" class="st2" d="M61.8,45.3L50.3,52l-11.5-6.6v13.8l11.5-6.6l11.5,6.6V45.3"
		/>
	<path id="path28_1_" inkscape:connector-curvature="0" class="st3" d="M49.8,52.2l-10.6,6.1V46.1L49.8,52.2"/>
	<path id="path30_1_" inkscape:connector-curvature="0" class="st3" d="M50.8,52.2l10.6,6.1V46.1L50.8,52.2"/>
	<path id="path32_1_" inkscape:connector-curvature="0" class="st2" d="M35.4,53.1h3.4v-1.5h-3.4C35.4,51.6,35.4,53.1,35.4,53.1z"/>
	<path id="path34_1_" inkscape:connector-curvature="0" class="st2" d="M61.8,53.1h3.4v-1.5h-3.4V53.1z"/>
</g>
<text transform="matrix(1 0 0 1 5.3115 26.7618)" class="st4 st5">MK</text>
<g>
	<path id="path22" inkscape:connector-curvature="0" class="st1" d="M14.1,40.2h1.7c1,4.1,1,4.6,1.2,5.4h0c0.1-0.8,0.2-1.5,1-5.4
		h1.6c0.9,4.1,0.9,4.5,1.1,5.4h0c0.1-0.7,0.2-1.3,1.2-5.4h1.6l-2.1,7.4H20c-0.8-3.6-0.9-4.4-1.2-5.8h0c-0.2,1.4-0.3,2-1.2,5.8h-1.4
		L14.1,40.2"/>
	<path id="path26" inkscape:connector-curvature="0" class="st2" d="M30.4,45.7c0,0.8,0,12.2,0,13c-0.7-0.4-11.2-6.5-11.2-6.5
		C19.2,52.2,29.7,46.1,30.4,45.7z M7.9,45.7c0.7,0.4,11.2,6.5,11.2,6.5c0,0-10.5,6.1-11.2,6.5C7.9,57.9,7.9,46.5,7.9,45.7z
		 M19.2,51.6c-0.2-0.1-11.7-6.8-11.7-6.8v14.6c0,0,11.5-6.6,11.7-6.8c0.2,0.1,11.7,6.8,11.7,6.8V44.9C30.9,44.9,19.4,51.5,19.2,51.6
		"/>
	<path id="path28" inkscape:connector-curvature="0" class="st6" d="M19.2,52.2L7.9,58.7V45.6L19.2,52.2"/>
	<path id="path30" inkscape:connector-curvature="0" class="st6" d="M19.1,52.2l11.4,6.6V45.6L19.1,52.2"/>
	<path id="path32" inkscape:connector-curvature="0" class="st2" d="M4.3,53.1h3.4v-1.5H4.3V53.1z"/>
	<path id="path34" inkscape:connector-curvature="0" class="st2" d="M30.7,53.1H34v-1.5h-3.4V53.1z"/>
</g>
</svg>
